X:698
T:Bostony
O:england
M:4/4
L:1/8
Q:160
S:John Hartford's "Wild Hog in the Redbrush" transcribed by Llarry Brandon
K:G
de|:"G" gfgb a2 f2| gega g2 dc|Bcde gega|"D7"b2 a2 a4|
c'4 e4| fefg f2 fe| BABc dBAc|"G" B2 G2 G2 [1de:|[2|B2 G2 G2 GE|
|:"G" DEGA BABd|e2 d2 d2 B2|"D7"cBAG FDEF|"G" A2 G2 G2 GE|
DEGA BABd|e2 d2 d2 B2|"D7"cBAG FDEF|"G" A2 G2 G2 GE:|


